X: 0
T: Macht hoch die Tur
Z: Johann A. Freylinghausen, 1704
Z: Copyright © 2006 by Douglas D. Anderson
Z: Released To The Public Domain
L: 1/4
M: 3/4
V: P1 name="Church Organ"
%%MIDI program 1 19
V: P2 name="French Horn"
%%MIDI program 2 60
V: P3 name="Trombone"
%%MIDI program 3 57
V: P4 name="Tuba"
%%MIDI program 4 58
K: F
[V: P1]  A | c2 B | A2 G | (F G) A | G2 c | B2 B | A2 A | (G F) G | F2 A | G2 G | (A =B) c | (c d) =B | c2 G | A2 G | (A =B) c | (c d) =B | c2 c | d2 c | d2 c | (d c) B | A2 c | d2 c | d2 c | (d c) B | A2 c | F2 F | B2 A | G3 |z2 c | B2 A | (G F) G | F2|]
w: Lift up your heads, ye might-_ y gates! Be- hold, the King of Glo-_ ry waits; The King of kings_ is draw-_ ing near, The Sav- ior of_ the world_ is here. Life and sal- va tion He_ doth bring, Where- fore re- joice and glad-_ ly sing: We praise Thee, Fa- ther, now, Cre- a tor, wise_ art Thou!
[V: P2]  F | F2 F | F2 E | (D E) F | E2 E | F2 G | F2 F | (E D) E | C2 F | E2 C | F2 G | (E F) D | E2 E | F2 C | F2 G | (E F) D | E2 F | F2 F | F2 F | D2 E | F2 F | F2 F | F2 F | D2 E | F2 F | D2 F | G2 F | E3 |z2 E | (D C) F | (E D) E | C2|]
[V: P3]  C | A,2 D | C2 C | (A, B,) C | C2 G, | D2 C | C2 C | C2 G, | A,2 C | C2 G, | (C D) C | (C A,) G, | G,2 C | C2 G, | (C D) C | (C A,) G, | G,2 A, | A,2 A, | B,2 C | B,2 C | C2 A, | A,2 A, | B,2 C | B,2 C | C2 C | B,2 C | D2 C | C3 |z2 G, | (F, G,) C | C2 G, | A,2|]
[V: P4]  F, | F,2 B,, | F,2 C, | (D, G,) F, | C,2 C, | D,2 E, | F,2 A,, | C,2 C, | F,,2 F, | C,2 E, | (F, D,) E, | (A, F,) G, | C,2 C, | F,2 E, | (F, D,) E, | (A, F,) G, | C,2 F, | D,2 F, | B,2 A, | G,2 C, | F,2 F, | D,2 F, | B,2 A, | G,2 C, | F,,2 A,, | B,,2 A,, | G,,2 A,, | C,3 |z2 C, | (D, E,) F, | C,2 C, | F,,2|]

